src/imgs/digiify_logo.svg

<svg width="74" height="70" viewBox="0 0 74 70" fill="none" xmlns="http://www.w3.org/2000/svg">
<rect x="0.864655" width="72.6316" height="70" rx="12.8947" fill="url(#paint0_linear)"/>
<path d="M50.8891 51.6549C50.8891 52.1781 50.465 52.6021 49.9419 52.6021L45.6676 52.6021L24.4235 52.6021C23.9004 52.6021 23.4763 52.1781 23.4763 51.6549L23.4763 18.3329C23.4763 17.8098 23.9004 17.3857 24.4235 17.3857L45.3141 17.3857C45.5421 17.3857 45.7625 17.4679 45.9347 17.6173L50.5625 21.6302C50.7699 21.8102 50.8891 22.0713 50.8891 22.3459L50.8891 51.6549ZM29.645 21.9135C29.1219 21.9135 28.6978 22.3376 28.6978 22.8607L28.6978 47.1271C28.6978 47.6502 29.1219 48.0743 29.645 48.0743L44.7204 48.0743C45.2435 48.0743 45.6676 47.6502 45.6676 47.1271L45.6676 22.8607C45.6676 22.3376 45.2435 21.9135 44.7204 21.9135L29.645 21.9135Z" fill="white"/>
<path d="M53.2946 49.5207C53.3748 50.0377 53.0201 50.5172 52.5023 50.5918L48.2757 51.2004L27.2657 54.2258C26.7479 54.3003 26.2631 53.9417 26.183 53.4247L21.0708 20.4672C20.9907 19.9502 21.3454 19.4707 21.8632 19.3961L42.5229 16.4212C42.7488 16.3887 42.9798 16.4387 43.1733 16.562L48.3658 19.8718C48.5984 20.0201 48.7561 20.2609 48.7982 20.532L53.2946 49.5207ZM27.722 23.1306C27.2042 23.2052 26.8494 23.6847 26.9296 24.2016L30.6525 48.203C30.7327 48.72 31.2174 49.0786 31.7352 49.004L46.6435 46.8573C47.1613 46.7827 47.5161 46.3032 47.4359 45.7863L43.713 21.7849C43.6328 21.2679 43.1481 20.9093 42.6303 20.9839L27.722 23.1306Z" fill="white" fill-opacity="0.35"/>
<path d="M55.3237 47.0604C55.4816 47.5591 55.2029 48.0834 54.7012 48.2315L50.6172 49.4369L30.3076 55.4314C29.8059 55.5795 29.2711 55.2952 29.1131 54.7965L19.018 22.9192C18.8601 22.4205 19.1388 21.8961 19.6405 21.748L39.6094 15.8541C39.8291 15.7893 40.0663 15.8058 40.2773 15.9005L45.9175 18.4327C46.1695 18.5458 46.3615 18.7604 46.4441 19.0212L55.3237 47.0604ZM26.0045 24.6052C25.5027 24.7533 25.224 25.2776 25.382 25.7764L32.7341 48.9922C32.8921 49.491 33.4269 49.7752 33.9286 49.6271L48.3372 45.3744C48.839 45.2263 49.1177 44.7019 48.9597 44.2032L41.6076 20.9873C41.4496 20.4886 40.9148 20.2044 40.4131 20.3525L26.0045 24.6052Z" fill="white" fill-opacity="0.07"/>
<defs>
<linearGradient id="paint0_linear" x1="37.1804" y1="0" x2="37.1804" y2="70" gradientUnits="userSpaceOnUse">
<stop stop-color="#5DB5F5"/>
<stop offset="1" stop-color="#06539A"/>
</linearGradient>
</defs>
</svg>

<svg fill="none" xmlns="http://www.w3.org/2000/svg" viewBox="0 0 74 70"><rect x=".86" width="72.63" height="70" rx="12.89" fill="url(#paint0_linear)"/><path d="M50.89 51.65c0 .53-.42.95-.95.95H24.42a.95.95 0 01-.94-.95V18.33c0-.52.42-.94.94-.94h20.9c.22 0 .44.08.61.23l4.63 4.01c.21.18.33.44.33.72v29.3zM29.64 21.91a.95.95 0 00-.94.95v24.27c0 .52.42.94.95.94h15.07c.52 0 .95-.42.95-.94V22.86a.95.95 0 00-.95-.95H29.65z" fill="white"/><path d="M53.3 49.52c.07.52-.28 1-.8 1.07l-4.22.61-21.01 3.03a.96.96 0 01-1.09-.8l-5.1-32.96a.94.94 0 01.78-1.07l20.66-2.98c.23-.03.46.02.65.14l5.2 3.31c.23.15.39.4.43.66l4.5 29zM27.71 23.13a.93.93 0 00-.79 1.07l3.72 24c.08.52.57.88 1.09.8l14.9-2.14a.93.93 0 00.8-1.07l-3.73-24a.96.96 0 00-1.08-.8l-14.9 2.14z" fill="white" fill-opacity=".35"/><path d="M55.32 47.06a.92.92 0 01-.62 1.17l-4.08 1.2-20.31 6a.97.97 0 01-1.2-.63l-10.1-31.88a.93.93 0 01.63-1.17l19.97-5.9a.97.97 0 01.67.05l5.64 2.53c.25.12.44.33.52.6l8.88 28.03zM26 24.61a.92.92 0 00-.62 1.17l7.35 23.21c.16.5.7.79 1.2.64l14.4-4.26c.5-.14.79-.67.63-1.17L41.61 21a.97.97 0 00-1.2-.64l-14.4 4.26z" fill="white" fill-opacity=".07"/><defs><linearGradient id="paint0_linear" x1="37.18" y1="0" x2="37.18" y2="70" gradientUnits="userSpaceOnUse"><stop stop-color="#5DB5F5"/><stop offset="1" stop-color="#06539A"/></linearGradient></defs></svg>
